X:3
T:Longtemps y a
R:Chanson
C:Tielman Susato [orig. Clément Marot]
H:1544
N:compatible Abc2midi & Abcm2ps
A:Anvers
B:Premier livre des chansons
%O:Flandres
Z: Eric Forgeot - http://anamnese.online.fr
M:C|
L:1/4
Q:1/4=110
K:F
%%staves [1 | 2 | 3]
V:1 nm="S."
V:2 nm="A."
V:3 nm="T."
%%measurenb 0
%%staffsep 49pt
%%sysstaffsep 27pt
V:1
%%MIDI channel 1
%%MIDI program 60       % General MIDI french horn
%%MIDI transpose 0
%%MIDI control 7 110 %volume
%%MIDI control 10 100 %pan
%%freegchord 1
"(Chantez a deux si bon vous semble, Puis chanterez tous troix ensemble.)"
   d4 | d2 dc/ B/ | A2 z A |\
w:Long|temps y__| a  que |
ccde | f>e dc-|c/ B/ A/ G/  A2 | G2 z d |
w:je vis en es-|poir_______|_ et |
cBAG | A/  B/  cBA | z dcB | A z/ c/  de |\
w:que ri-gueur a | des-sus moy pou-voir, | Et que ri-|gueur a des-sus |
f>e d/ c/  e-|e/ d/  d2 ^c | d4 | z ddd |
w:moy ___ pou|____| voir; | 
A2 z A | c>d ee | f2 e d-|d/ c/ B/ A/  B A-|\
A/ G/ G2 ^F | G2 z A | Bcd2-|ddcA |
BBAd | efgg | fdf2 | ed2^c |\
d4 | z2 d2 | ddd c/ B/  | A2 z A | ccde |
f>e dc-|c/ B/ A/ G/  A2 | G2 z2 | d2dd |\
A2 z A | c>d ee | f2 e d-|d/ c/ B/ A/  B A-|
A/ G/ G2 ^F | G2 z2 | d2dd | A2 z A |\ 
c>d ee |f2 e d-|d/ c/ B/ A/  B A-| A/ G/ G2 ^F | HG4 |]
V:2
%%MIDI channel 2
%%MIDI program 69       % General MIDI english horn
%%MIDI transpose 0
%%MIDI control 7 110 %volume
%%MIDI control 10 30 %pan
D>E F G-|G F/ E/ D>E | FDF>G | 
w:Long__temps|___y_|a que je vis
AABA/ G/ | F/ E/ D/ E/  F/ G/ A-|A/ G/  G2 ^F | G4 |
w:en espoir__|_______|___|_|
 z GFE | DC D/  E/  F | E D z G | FEDC |
w:Et que ri-|gueur a des-sus moy | pou-voir, et | que ri-gueur a |
D>E F G-|G/ F/ F/ E/4D/4 E2 | D2 zG | GGDD |
w:des-sus moy pou |______|voir. 
F>G A3/2G/4F/4 | EFGC | zDEF | G3/2 F/4E/4D C-|
C/ B,/ B,/ A,/4G,/4A, B,-|B, A,/ G,/ D2 | DEFG-|G/ F/ D/ E/  F>E |
D/ C/ B,/ A,/  D3/2 C/4B,/4 | A, D E/ F/ G/ A/  | B>A F/ G/ A/ F/  | G/ F/ F/ E/4D/4E2 |
D2 z2 |G2 GG | GF/ E/ D2 | z DF>G | AABA/ G/  | 
F/ E/ D/ E/  F/ G/  A-|A/ G/  G3/2 ^F/4E/4^F | G2G2 | GGDD |
F>G A3/2G/4F/4 | EFGC | zDEF | G3/2 F/4E/4D C-|
C/ B,/ B,/ A,/4G,/4A,2 | G,2 G2 | GGDD | F>G A3/2G/4F/4 | 
EFGC | zDEF | G3/2 F/4E/4D C-|
C/ B,/ B,/ A,/4G,/4A,2 | HG,4 |]
V:3
%%MIDI channel 3
%%MIDI program 70       % General MIDI bassoon
%%MIDI transpose -12
%%MIDI control 7 110 %volume
%%MIDI control 10 65 %pan
%%freegchord 1
K:F treble-8
"(Veulx tu chanter par bon advis, Attens que tu en soys requis.)"
z4|z d B G|d3 d|
AcBc|d>c B A/ G/ |F G d2|G c2 B|
A G/  G/  de|fedd|cBAG|A/2 B/2 cBA|
z ddc|B2 A2|B2 G2|GG B z/  d/ | 
ddAd | cAc/  d/  =e | dBcd | GB2F |
G2D2 | _E2D2 | z2z G | BBFF | 
G2 D z/  d/  | cfcc | dGd2 | cBA2 |
B3G | G4 | z dBG | d3 d | AcBc|
d>c B A/ G/ |F G d2| G2 z G | GGBz/ d/  |
ddAd | cAc/  d/  =e | dBcd | GB2F |
G2D2 |G2 zG | GGBz/ d/  |
ddAd | cAc/  d/  =e | dBcd | GB2F |
G2D2 | HG4 |]
W:Longtemps y a que je vis en espoir
W:Et que rigueur a dessus moy pouvoir, (2 fois)
W:Mais si jamais je rencontre Allégeance
W:Je lui diray : "Madame, venez veoir 
W:Rigueur me bat, faites m'en la vengeance" (3 fois)
%%MIDI transpose 0

%%newpage

